assets/fonts/icomoon.svg

<?xml version="1.0" standalone="no"?>
<!DOCTYPE svg PUBLIC "-//W3C//DTD SVG 1.1//EN" "http://www.w3.org/Graphics/SVG/1.1/DTD/svg11.dtd" >
<svg xmlns="http://www.w3.org/2000/svg">
<metadata>Generated by IcoMoon</metadata>
<defs>
<font id="icomoon" horiz-adv-x="1024">
<font-face units-per-em="1024" ascent="960" descent="-64" />
<missing-glyph horiz-adv-x="1024" />
<glyph unicode="&#x20;" horiz-adv-x="512" d="" />
<glyph unicode="&#xe900;" glyph-name="minus" horiz-adv-x="12800" d="M550 938.667h11255.347c282.77 0 512-229.23 512-512s-229.23-512-512-512h-11255.347c-282.77 0-512 229.23-512 512s229.23 512 512 512z" />
<glyph unicode="&#xe901;" glyph-name="plus" d="M469.333-42.666c0-23.565 19.102-42.667 42.667-42.667s42.667 19.102 42.667 42.667v426.667h426.667c23.565 0 42.667 19.102 42.667 42.667s-19.102 42.667-42.667 42.667h-426.667v426.667c0 23.564-19.102 42.667-42.667 42.667s-42.667-19.103-42.667-42.667v-426.667h-426.667c-23.564 0-42.667-19.102-42.667-42.667s19.103-42.667 42.667-42.667h426.667v-426.667z" />
<glyph unicode="&#xe902;" glyph-name="add" d="M810 384.667h-256v-256h-84v256h-256v84h256v256h84v-256h256v-84z" />
<glyph unicode="&#xe903;" glyph-name="remove" d="M810 384.667h-596v84h596v-84z" />
<glyph unicode="&#xe904;" glyph-name="delete" d="M985.105 921.954c22.289-22.285 22.289-58.415 0-80.7l-392.405-392.408 414.583-414.584c22.289-22.289 22.289-58.419 0-80.7-22.281-22.289-58.411-22.289-80.7 0l-414.583 414.585-414.587-414.585c-22.285-22.289-58.415-22.289-80.7 0-22.285 22.281-22.285 58.411 0 80.7l414.587 414.584-392.407 392.408c-22.285 22.285-22.285 58.415 0 80.7s58.415 22.285 80.699 0l392.408-392.408 392.405 392.408c22.289 22.285 58.419 22.285 80.7 0z" />
</font></defs></svg>

<svg xmlns="http://www.w3.org/2000/svg"><defs><font id="icomoon" horiz-adv-x="1024"><font-face units-per-em="1024" ascent="960" descent="-64"/><glyph horiz-adv-x="512"/><glyph unicode="" glyph-name="minus" horiz-adv-x="12800" d="M550 938.667h11255.347c282.77 0 512-229.23 512-512s-229.23-512-512-512H550c-282.77 0-512 229.23-512 512s229.23 512 512 512z"/><glyph unicode="" glyph-name="plus" d="M469.333-42.666c0-23.565 19.102-42.667 42.667-42.667s42.667 19.102 42.667 42.667v426.667h426.667c23.565 0 42.667 19.102 42.667 42.667s-19.102 42.667-42.667 42.667H554.667v426.667c0 23.564-19.102 42.667-42.667 42.667s-42.667-19.103-42.667-42.667V469.335H42.666c-23.564 0-42.667-19.102-42.667-42.667s19.103-42.667 42.667-42.667h426.667V-42.666z"/><glyph unicode="" glyph-name="add" d="M810 384.667H554v-256h-84v256H214v84h256v256h84v-256h256v-84z"/><glyph unicode="" glyph-name="remove" d="M810 384.667H214v84h596v-84z"/><glyph unicode="" glyph-name="delete" d="M985.105 921.954c22.289-22.285 22.289-58.415 0-80.7L592.7 448.846l414.583-414.584c22.289-22.289 22.289-58.419 0-80.7-22.281-22.289-58.411-22.289-80.7 0L512 368.147 97.413-46.438c-22.285-22.289-58.415-22.289-80.7 0-22.285 22.281-22.285 58.411 0 80.7L431.3 448.846 38.893 841.254c-22.285 22.285-22.285 58.415 0 80.7s58.415 22.285 80.699 0L512 529.546l392.405 392.408c22.289 22.285 58.419 22.285 80.7 0z"/></font></defs></svg>
